X:1
T:Title
%%score { 1 | 2 }
L:1/8
M:2/4
K:Ab
V:1 treble nm="Grand Piano"
V:2 bass 
V:1
 z2[Q:1/4=78] [CE]>[CE] | [Ec][Ec] [CA][CE]/[CE]/ | [DF][FA] [FA][DF]/[DF]/ | %3
 [CE][CA]/[CA]/ [Ec][EA] | B2 E>E | [Ec][Ec]/[Ec]/ [CA][CE]/[CE]/ | FF/F/ [FA]F/F/ | EA c>B | %8
 [CA]4 |[Q:1/4=86] [Ec][CA] [CE]C | DF F2 | EG G2 | [DF][CE] [CE][EA] | [Ec][CA] [CE]C | DF F2 | %15
 EA c>B | [CA]4 | [Ec][CA] [CE]C | DF F2 | EG G2 | [DF][CE] [CE][EA] | [Ec][CA] [CE]C | DF F2 | %23
 EA c>B | [CA]4 |] %25
V:2
 z2 [A,,A,]>[A,,A,] | [A,,A,][A,,A,] [A,,E,][A,,A,]/[A,,A,]/ | [D,A,][D,A,] [D,A,][D,A,]/[D,A,]/ | %3
 [A,,A,][A,,E,]/[A,,E,]/ [A,,A,][C,A,] | [E,G,E]2 [E,G,]>[E,G,] | %5
 [A,,A,][A,,A,]/[A,,A,]/ [A,,E,][A,,A,]/[A,,A,]/ | [D,A,D][D,A,D]/[D,A,D]/ [D,A,][D,A,D]/[D,A,D]/ | %7
 [E,A,C][E,A,C] [E,A,E]>[E,G,D] | [A,,A,]4 | [A,,A,][A,,E,] [A,,A,][A,,E,A,] | %10
 [D,F,A,][D,A,D] [D,A,D]2 | [E,G,D][E,B,D] [E,B,D]2 | [A,,A,][A,,A,] [A,,A,]2 | %13
 [A,,A,][A,,E,] [A,,A,][A,,E,A,] | [D,F,A,][D,A,D] [D,A,D]2 | [E,A,C][E,A,C] [E,A,E]>[E,G,D] | %16
 [A,,A,]4 | [A,,A,][A,,E,] [A,,A,][A,,E,A,] | [D,F,A,][D,A,D] [D,A,D]2 | [E,G,D][E,B,D] [E,B,D]2 | %20
 [A,,A,][A,,A,] [A,,A,]2 | [A,,A,][A,,E,] [A,,A,][A,,E,A,] | [D,F,A,][D,A,D] [D,A,D]2 | %23
 [E,A,C][E,A,C] [E,A,E]>[E,G,D] | [A,,A,]4 |] %25

